X:285
T:Ruins of Killmallock Jig
M:6/8
L:1/8
Z:abc by Bruce Osborne - bosborne@kos.net
K:A
A/B/|cBc dcd|ecA AFE|cBd cBA|GEF GAB|!
cBc dcd|ecA Bcd|cBA BGE|EAA A2:|!
|:e|aga ece|agf edc|dcd BAB|ABc deg|!
aga ece|agf edc|Bcd efg|aAA A2:|!
